packages/components/src/components/icon/cashier/ic-cashier-lite-coin-dark.svg

<svg width="40" height="25" viewBox="0 0 40 25" fill="none" xmlns="http://www.w3.org/2000/svg">
<path d="M8.77327 8.125C7.90316 8.125 7.05259 8.38302 6.32911 8.86643C5.60564 9.34984 5.04176 10.0369 4.70879 10.8408C4.37581 11.6447 4.28869 12.5293 4.45844 13.3826C4.62819 14.236 5.04719 15.0199 5.66245 15.6352C6.27771 16.2505 7.0616 16.6695 7.915 16.8392C8.76839 17.009 9.65296 16.9218 10.4568 16.5889C11.2607 16.2559 11.9478 15.692 12.4312 14.9685C12.9146 14.2451 13.1726 13.3945 13.1726 12.5244C13.1726 11.9466 13.0589 11.3746 12.8378 10.8408C12.6167 10.307 12.2926 9.82206 11.8841 9.41355C11.4756 9.00503 10.9906 8.68097 10.4568 8.45988C9.92308 8.23879 9.35101 8.125 8.77327 8.125ZM8.84457 12.6691L8.38697 14.2132H10.8346C10.8541 14.2133 10.8733 14.2179 10.8907 14.2266C10.9081 14.2353 10.9232 14.248 10.9348 14.2636C10.9465 14.2792 10.9544 14.2972 10.9579 14.3164C10.9613 14.3355 10.9603 14.3552 10.9549 14.3739L10.742 15.1072C10.7319 15.1422 10.7106 15.173 10.6814 15.1949C10.6522 15.2167 10.6167 15.2285 10.5803 15.2285H6.84176L7.47389 13.0937L6.77472 13.3066L6.92903 12.8074L7.62927 12.5946L8.5168 9.59571C8.52656 9.56057 8.54755 9.52959 8.57656 9.50749C8.60558 9.48539 8.64102 9.4734 8.6775 9.47333H9.62463C9.64406 9.47326 9.66325 9.4777 9.68068 9.48631C9.6981 9.49492 9.71329 9.50745 9.72505 9.52292C9.73681 9.5384 9.74482 9.55639 9.74845 9.57548C9.75207 9.59458 9.75122 9.61425 9.74594 9.63296L9.00101 12.1689L9.70018 11.9561L9.55013 12.4637L8.84457 12.6691Z" fill="white"/>
<path d="M17.1351 9.42474C17.2011 9.4182 17.2676 9.4314 17.3262 9.46269C17.4043 9.50447 17.4628 9.57551 17.4887 9.66027C17.5146 9.74503 17.5059 9.83661 17.4645 9.91497C17.4335 9.97365 17.3858 10.0218 17.3274 10.0533C17.269 10.0848 17.2025 10.0983 17.1365 10.092C17.0704 10.0858 17.0077 10.06 16.9562 10.0181C16.9048 9.97612 16.867 9.91984 16.8476 9.85638C16.8282 9.79292 16.828 9.72512 16.8472 9.66157C16.8664 9.59803 16.9039 9.5416 16.9552 9.49944C17.0064 9.45728 17.0691 9.43128 17.1351 9.42474Z" fill="white"/>
<path d="M15.4426 9.46056H15.7171C15.7704 9.46056 15.8023 9.48397 15.7938 9.5457L15.0797 15.1487C15.0798 15.1605 15.0774 15.1722 15.0726 15.183C15.0677 15.1938 15.0606 15.2034 15.0517 15.2112C15.0428 15.219 15.0323 15.2247 15.021 15.2281C15.0097 15.2314 14.9977 15.2323 14.986 15.2306H14.7136C14.6572 15.2306 14.6391 15.2019 14.6455 15.1487L15.35 9.54357C15.3505 9.53201 15.3534 9.52067 15.3583 9.51022C15.3633 9.49977 15.3703 9.49041 15.3789 9.48268C15.3875 9.47496 15.3976 9.46902 15.4085 9.46523C15.4195 9.46143 15.431 9.45984 15.4426 9.46056Z" fill="white"/>
<path d="M16.8739 11.076H17.1453C17.2049 11.076 17.223 11.1047 17.2209 11.1601L16.7196 15.1487C16.7193 15.1608 16.7164 15.1728 16.7111 15.1838C16.7058 15.1947 16.6982 15.2044 16.6888 15.2122C16.6794 15.22 16.6685 15.2256 16.6567 15.2288C16.645 15.232 16.6327 15.2326 16.6207 15.2306H16.3482C16.2971 15.2306 16.2652 15.2029 16.2716 15.1487L16.7803 11.1579C16.7807 11.1463 16.7834 11.1348 16.7884 11.1243C16.7934 11.1137 16.8005 11.1043 16.8093 11.0966C16.8181 11.089 16.8284 11.0832 16.8395 11.0796C16.8506 11.0761 16.8623 11.0748 16.8739 11.076Z" fill="white"/>
<path fill-rule="evenodd" clip-rule="evenodd" d="M29.1015 11.01C28.7491 11.002 28.4045 11.1143 28.1245 11.3284C27.8446 11.5426 27.646 11.8459 27.5616 12.1881C27.4858 12.5058 27.4293 12.8277 27.3924 13.1522C27.3487 13.4719 27.3232 13.7938 27.3158 14.1164C27.3122 14.2738 27.3404 14.4304 27.3987 14.5767C27.4571 14.723 27.5443 14.856 27.6553 14.9678C27.8766 15.1806 28.1799 15.287 28.5652 15.287C28.918 15.295 29.263 15.1824 29.5431 14.9678C29.8194 14.7555 30.0147 14.455 30.0965 14.1164C30.1734 13.7989 30.2299 13.4769 30.2657 13.1522C30.309 12.8297 30.3342 12.5049 30.3413 12.1796C30.3485 12.0221 30.3223 11.8648 30.2645 11.7181C30.2068 11.5714 30.1187 11.4386 30.0061 11.3282C29.7584 11.1069 29.4332 10.9925 29.1015 11.01ZM29.8709 12.7649C29.8454 12.9681 29.8294 13.098 29.8241 13.1522C29.773 13.5641 29.7273 13.8589 29.6879 14.0345C29.6349 14.2858 29.497 14.5113 29.2973 14.673C29.1025 14.8308 28.8584 14.9152 28.6077 14.9114C28.4936 14.9189 28.3792 14.9022 28.2721 14.8622C28.1649 14.8222 28.0675 14.7599 27.9863 14.6793C27.9051 14.5988 27.842 14.502 27.801 14.3952C27.7601 14.2884 27.7423 14.1742 27.7489 14.06C27.7513 13.8891 27.7641 13.7185 27.7872 13.5492C27.8128 13.3459 27.8287 13.2172 27.8341 13.1618C27.8851 12.767 27.9309 12.4722 27.9703 12.2807C28.0237 12.0295 28.1615 11.8041 28.3608 11.6422C28.5559 11.4848 28.7998 11.4005 29.0504 11.4038C29.1645 11.3962 29.2789 11.413 29.3861 11.453C29.4932 11.493 29.5906 11.5553 29.6718 11.6358C29.753 11.7163 29.8162 11.8131 29.8571 11.9199C29.8981 12.0267 29.9158 12.141 29.9092 12.2551C29.9068 12.4257 29.894 12.5959 29.8709 12.7649Z" fill="white"/>
<path d="M31.63 11.076H31.9014C31.9546 11.076 31.977 11.1047 31.9695 11.1579L31.4683 15.1487C31.4677 15.1603 31.4649 15.1717 31.4598 15.1821C31.4548 15.1926 31.4477 15.202 31.4389 15.2096C31.4302 15.2173 31.42 15.2231 31.4089 15.2267C31.3979 15.2303 31.3862 15.2316 31.3746 15.2306H31.1022C31.0511 15.2306 31.0181 15.2061 31.0256 15.1487L31.5364 11.1579C31.538 11.1347 31.5488 11.113 31.5663 11.0977C31.5839 11.0823 31.6068 11.0745 31.63 11.076Z" fill="white"/>
<path d="M35.3429 11.3112C35.1556 11.1154 34.8928 11.0185 34.5522 11.0185C34.3414 11.0163 34.1327 11.0599 33.9403 11.1462C33.752 11.2323 33.5882 11.364 33.4636 11.5294C33.4412 11.5506 33.4295 11.5453 33.4295 11.5123L33.4721 11.1579C33.4785 11.1079 33.4561 11.076 33.404 11.076H33.1326C33.121 11.075 33.1094 11.0763 33.0983 11.0799C33.0873 11.0835 33.0771 11.0893 33.0683 11.097C33.0596 11.1047 33.0525 11.114 33.0474 11.1245C33.0424 11.1349 33.0395 11.1463 33.039 11.1579L32.5377 15.1487C32.5313 15.2008 32.5494 15.2306 32.6058 15.2306H32.8783C32.8898 15.2315 32.9014 15.23 32.9124 15.2264C32.9234 15.2227 32.9336 15.2169 32.9423 15.2093C32.951 15.2016 32.9581 15.1924 32.9632 15.1819C32.9683 15.1715 32.9712 15.1602 32.9719 15.1487L33.3369 12.2892C33.3889 12.0412 33.5205 11.817 33.7115 11.6507C33.8981 11.4886 34.1381 11.4014 34.3852 11.4059C34.492 11.4013 34.5986 11.4196 34.6979 11.4594C34.7972 11.4992 34.8868 11.5597 34.9609 11.6368C35.11 11.8051 35.1865 12.0254 35.1737 12.2498C35.1749 12.3106 35.1721 12.3714 35.1652 12.4318L34.8172 15.1487C34.8148 15.1586 34.8146 15.1689 34.8169 15.1789C34.8191 15.1889 34.8236 15.1982 34.83 15.2061C34.8382 15.2147 34.8481 15.2213 34.8592 15.2256C34.8702 15.2298 34.8821 15.2315 34.8939 15.2306H35.1652C35.1768 15.2316 35.1885 15.2303 35.1995 15.2267C35.2106 15.2231 35.2208 15.2173 35.2295 15.2096C35.2383 15.202 35.2454 15.1926 35.2504 15.1821C35.2555 15.1717 35.2583 15.1603 35.2589 15.1487L35.6079 12.3637C35.6196 12.2573 35.625 12.1711 35.625 12.1168C35.6334 11.9705 35.6129 11.8241 35.5645 11.6858C35.5161 11.5475 35.4408 11.4202 35.3429 11.3112Z" fill="white"/>
<path d="M32.0961 9.46269C32.0374 9.43192 31.9708 9.41927 31.9049 9.42633C31.8389 9.43339 31.7766 9.45985 31.7257 9.50235C31.6748 9.54486 31.6376 9.60151 31.6189 9.66512C31.6003 9.72874 31.6008 9.79648 31.6206 9.85976C31.6405 9.92305 31.6786 9.97904 31.7302 10.0206C31.7818 10.0623 31.8446 10.0876 31.9107 10.0935C31.9767 10.0994 32.0431 10.0856 32.1013 10.0538C32.1594 10.0221 32.2069 9.97373 32.2376 9.91497C32.2788 9.83622 32.287 9.74434 32.2605 9.65953C32.2339 9.57472 32.1748 9.50392 32.0961 9.46269Z" fill="white"/>
<path d="M24.5595 11.3357C24.8412 11.1172 25.1895 11.0023 25.546 11.01C25.8775 10.9908 26.2031 11.1037 26.4516 11.324C26.5646 11.4341 26.653 11.5669 26.7109 11.7136C26.7689 11.8604 26.7951 12.0177 26.7879 12.1753V12.2722C26.7879 12.2787 26.7866 12.2851 26.7841 12.2911C26.7815 12.2971 26.7778 12.3026 26.7732 12.3072C26.7685 12.3117 26.763 12.3153 26.7569 12.3177C26.7509 12.3201 26.7444 12.3213 26.7379 12.3211H26.4186C26.4102 12.3211 26.4018 12.3194 26.3941 12.3161C26.3863 12.3128 26.3793 12.308 26.3734 12.302C26.3676 12.2959 26.363 12.2887 26.36 12.2809C26.3569 12.273 26.3555 12.2646 26.3558 12.2562V12.2498C26.3624 12.1355 26.3446 12.0212 26.3036 11.9143C26.2626 11.8075 26.1994 11.7106 26.118 11.63C26.0367 11.5495 25.9392 11.4872 25.8319 11.4473C25.7247 11.4074 25.6101 11.3907 25.4959 11.3985C25.2457 11.3951 25.0021 11.4795 24.8074 11.6368C24.6085 11.8003 24.4721 12.0273 24.4211 12.2796C24.3807 12.4712 24.336 12.7659 24.2849 13.1608C24.2785 13.2161 24.2594 13.3789 24.2381 13.5481C24.215 13.7175 24.2022 13.888 24.1998 14.0589C24.1932 14.1731 24.2109 14.2874 24.2519 14.3941C24.2928 14.5009 24.356 14.5978 24.4372 14.6783C24.5184 14.7588 24.6158 14.8211 24.7229 14.8611C24.8301 14.9011 24.9445 14.9179 25.0586 14.9103C25.309 14.9143 25.5528 14.8299 25.7471 14.6719C25.947 14.5103 26.0853 14.2849 26.1387 14.0334C26.1383 14.0281 26.1383 14.0227 26.1387 14.0174C26.1416 14.0059 26.1484 13.9957 26.1579 13.9886C26.1673 13.9814 26.179 13.9777 26.1909 13.9781H26.5261C26.5318 13.9781 26.5375 13.9794 26.5427 13.9819C26.5478 13.9844 26.5524 13.988 26.556 13.9925C26.5595 13.997 26.5621 14.0023 26.5633 14.0079C26.5646 14.0135 26.5646 14.0193 26.5633 14.0249C26.5559 14.0568 26.5484 14.0866 26.541 14.1153C26.4602 14.4542 26.2651 14.7548 25.9887 14.9667C25.7084 15.1812 25.3635 15.2938 25.0107 15.2859C24.6254 15.2859 24.3221 15.1795 24.1008 14.9667C23.9893 14.8553 23.9015 14.7224 23.843 14.576C23.7845 14.4297 23.7563 14.2729 23.7603 14.1153C23.7684 13.7928 23.794 13.471 23.8369 13.1512C23.8759 12.8269 23.9327 12.505 24.0071 12.187C24.0896 11.8489 24.2843 11.5488 24.5595 11.3357Z" fill="white"/>
<path fill-rule="evenodd" clip-rule="evenodd" d="M22.8004 11.3314C22.5526 11.1094 22.227 10.9946 21.8948 11.0122C21.5424 11.0041 21.1978 11.1164 20.9178 11.3306C20.6379 11.5448 20.4393 11.848 20.3549 12.1902C20.2794 12.508 20.2229 12.8299 20.1857 13.1544C20.1362 13.4734 20.1106 13.7957 20.1091 14.1185C20.1055 14.276 20.1337 14.4325 20.192 14.5788C20.2504 14.7251 20.3376 14.8581 20.4485 14.9699C20.6699 15.1827 20.9732 15.2891 21.3584 15.2891C21.7113 15.2971 22.0563 15.1845 22.3364 14.9699C22.6128 14.7578 22.8082 14.4573 22.8898 14.1185C22.8973 14.0898 22.9047 14.06 22.9122 14.0281C22.9134 14.0225 22.9134 14.0167 22.9122 14.0111C22.9109 14.0054 22.9084 14.0002 22.9048 13.9957C22.9012 13.9912 22.8967 13.9876 22.8915 13.9851C22.8863 13.9826 22.8806 13.9813 22.8749 13.9812H22.5365C22.5247 13.9811 22.5131 13.9849 22.5037 13.992C22.4942 13.9991 22.4874 14.0092 22.4843 14.0206V14.0366C22.4314 14.288 22.2934 14.5134 22.0938 14.6751C21.8975 14.8311 21.6527 14.9132 21.4021 14.9071C21.288 14.9147 21.1735 14.8979 21.0664 14.8579C20.9593 14.8179 20.8619 14.7556 20.7807 14.6751C20.6995 14.5946 20.6363 14.4977 20.5954 14.3909C20.5544 14.2842 20.5367 14.1699 20.5433 14.0557C20.5452 13.9067 20.5555 13.7578 20.5741 13.6098L23.0313 12.8489C23.0539 12.844 23.074 12.8315 23.0883 12.8135C23.1027 12.7955 23.1104 12.773 23.1101 12.75C23.125 12.6223 23.1346 12.4062 23.1367 12.1849C23.141 12.0273 23.1134 11.8705 23.0556 11.7238C22.9979 11.5772 22.911 11.4437 22.8004 11.3314ZM22.7036 12.4797C22.7032 12.4915 22.699 12.5029 22.6918 12.5123C22.6845 12.5216 22.6745 12.5285 22.6631 12.5318L20.6263 13.1608V13.1522C20.6773 12.7574 20.7231 12.4626 20.7625 12.2711C20.8159 12.0199 20.9537 11.7945 21.153 11.6326C21.3481 11.4752 21.592 11.3909 21.8426 11.3942C21.9577 11.3896 22.0724 11.4088 22.1797 11.4505C22.287 11.4923 22.3846 11.5557 22.4663 11.6368C22.7174 11.8827 22.7185 12.1455 22.7036 12.4797Z" fill="white"/>
<path d="M19.2145 14.7806C19.2024 14.7802 19.1905 14.7831 19.18 14.789C19.0055 14.8709 18.6724 14.9497 18.4957 14.8007C18.369 14.678 18.3954 14.4591 18.425 14.2137C18.4263 14.2037 18.4275 14.1936 18.4287 14.1834L18.7267 11.7858H19.578C19.6022 11.7874 19.6263 11.7806 19.6461 11.7667C19.6627 11.7496 19.6719 11.7266 19.6717 11.7028L19.6951 11.5134C19.6983 11.4612 19.6759 11.4314 19.627 11.4314H18.7756L18.9374 10.1118C18.9448 10.065 18.932 10.0299 18.8693 10.0299H18.6064C18.5948 10.0287 18.5831 10.03 18.572 10.0335C18.5608 10.0371 18.5506 10.0429 18.5418 10.0505C18.533 10.0582 18.5259 10.0676 18.5209 10.0782C18.5159 10.0887 18.5131 10.1002 18.5128 10.1118L18.3936 11.043L18.3425 11.4634L17.9828 14.3856C17.9381 14.7698 18.0179 15.0774 18.3297 15.22C18.6053 15.321 18.9084 15.3168 19.1811 15.2083C19.1977 15.2018 19.2123 15.1909 19.2233 15.1769C19.2344 15.1629 19.2415 15.1461 19.2439 15.1284L19.2779 14.8528C19.2791 14.8408 19.2769 14.8288 19.2717 14.8179C19.2665 14.8071 19.2584 14.7979 19.2483 14.7913C19.2382 14.7847 19.2265 14.781 19.2145 14.7806Z" fill="white"/>
</svg>

<svg width="40" height="25" fill="none" xmlns="http://www.w3.org/2000/svg"><path d="M8.773 8.125a4.4 4.4 0 100 8.799 4.4 4.4 0 000-8.799zm.072 4.544l-.458 1.544h2.448a.127.127 0 01.1.05.125.125 0 01.02.11l-.213.734a.168.168 0 01-.162.122H6.842l.632-2.135-.7.213.155-.5.7-.212.888-3a.167.167 0 01.16-.122h.948a.126.126 0 01.12.16l-.744 2.536.7-.213-.15.508-.706.205zM17.135 9.425a.335.335 0 11.066.667.335.335 0 01-.066-.667zM15.443 9.46h.274c.053 0 .085.024.077.086l-.714 5.603a.083.083 0 01-.028.062.083.083 0 01-.066.02h-.272c-.057 0-.075-.03-.069-.082l.705-5.605a.088.088 0 01.093-.083zM16.874 11.076h.271c.06 0 .078.029.076.084l-.501 3.989a.086.086 0 01-.031.063.085.085 0 01-.068.019h-.273c-.05 0-.083-.028-.076-.082l.508-3.991a.085.085 0 01.094-.082z" fill="#fff"/><path fill-rule="evenodd" clip-rule="evenodd" d="M29.102 11.01a1.55 1.55 0 00-1.54 1.178c-.076.318-.133.64-.17.964a8.57 8.57 0 00-.076.964 1.171 1.171 0 00.34.852c.22.213.524.319.91.319a1.55 1.55 0 00.977-.32c.276-.212.472-.512.553-.85.077-.318.134-.64.17-.965.043-.322.068-.647.075-.972a1.12 1.12 0 00-.335-.852 1.258 1.258 0 00-.904-.318zm.769 1.755c-.026.203-.042.333-.047.387a10.43 10.43 0 01-.136.883c-.053.25-.191.476-.39.638a1.07 1.07 0 01-.69.238.808.808 0 01-.86-.851c.003-.17.016-.341.04-.51l.046-.388c.051-.395.097-.69.136-.881.054-.252.192-.477.39-.639.196-.157.44-.242.69-.238a.807.807 0 01.86.851 4.2 4.2 0 01-.04.51z" fill="#fff"/><path d="M31.63 11.076h.271c.054 0 .076.029.069.082l-.502 3.99a.086.086 0 01-.093.083h-.273c-.05 0-.084-.025-.076-.082l.51-3.991a.088.088 0 01.094-.082zM35.343 11.311c-.187-.196-.45-.293-.79-.293-.212-.002-.42.042-.613.128a1.245 1.245 0 00-.476.383c-.023.022-.035.016-.035-.017l.043-.354c.006-.05-.016-.082-.068-.082h-.271a.087.087 0 00-.086.048.086.086 0 00-.008.034l-.501 3.99c-.007.053.011.083.068.083h.272a.088.088 0 00.085-.05.087.087 0 00.009-.032l.365-2.86c.052-.248.183-.472.374-.638a1 1 0 01.674-.245.753.753 0 01.576.23c.149.17.226.39.213.614 0 .06-.002.121-.009.182l-.348 2.717a.066.066 0 00.013.057.08.08 0 00.064.025h.271a.087.087 0 00.094-.082l.349-2.785c.012-.107.017-.193.017-.247a1.112 1.112 0 00-.282-.806zM32.096 9.463a.335.335 0 10-.31.593.335.335 0 00.31-.593zM24.56 11.336c.281-.219.63-.334.986-.326.332-.02.657.094.906.314a1.116 1.116 0 01.336.851v.097a.05.05 0 01-.05.05h-.32a.062.062 0 01-.058-.041.062.062 0 01-.004-.025v-.006a.807.807 0 00-.86-.851 1.073 1.073 0 00-.689.238 1.12 1.12 0 00-.386.643c-.04.191-.085.486-.136.88l-.047.388c-.023.17-.036.34-.038.51a.805.805 0 00.859.852c.25.004.494-.08.688-.238.2-.162.338-.387.392-.639v-.016a.052.052 0 01.052-.039h.335a.038.038 0 01.037.03.038.038 0 010 .017 3.768 3.768 0 01-.022.09c-.08.34-.276.64-.552.852-.28.214-.626.327-.978.319-.386 0-.689-.106-.91-.32a1.162 1.162 0 01-.34-.85 8.94 8.94 0 01.076-.965c.039-.324.096-.646.17-.964.083-.338.277-.638.552-.851z" fill="#fff"/><path fill-rule="evenodd" clip-rule="evenodd" d="M22.8 11.331a1.257 1.257 0 00-.905-.319 1.55 1.55 0 00-1.54 1.178c-.076.318-.132.64-.17.964-.049.32-.074.642-.076.964a1.17 1.17 0 00.34.852c.22.213.524.32.91.32a1.55 1.55 0 00.977-.32c.277-.212.472-.513.554-.852l.022-.09a.038.038 0 00-.02-.043.04.04 0 00-.017-.004h-.338a.054.054 0 00-.053.04v.016c-.053.251-.19.476-.39.638a1.07 1.07 0 01-.692.232.807.807 0 01-.859-.851c.002-.15.012-.298.031-.446l2.457-.761a.1.1 0 00.08-.099c.014-.128.024-.344.026-.565a1.17 1.17 0 00-.337-.854zm-.096 1.149a.057.057 0 01-.04.052l-2.038.629v-.009c.051-.395.097-.69.136-.88.054-.252.192-.478.391-.64.195-.157.439-.241.69-.238a.838.838 0 01.623.243c.251.246.252.508.238.843z" fill="#fff"/><path d="M19.215 14.78a.066.066 0 00-.035.009c-.174.082-.508.16-.684.012-.127-.123-.1-.342-.071-.587l.004-.03.298-2.398h.851a.107.107 0 00.068-.02.09.09 0 00.026-.063l.023-.19c.003-.052-.02-.082-.068-.082h-.851l.161-1.32c.008-.046-.005-.081-.068-.081h-.263a.085.085 0 00-.093.082l-.12.931-.05.42-.36 2.923c-.045.384.035.691.347.834.275.101.578.097.851-.012a.1.1 0 00.063-.08l.034-.275a.066.066 0 00-.063-.072z" fill="#fff"/></svg>
